Educa/src/img/icons/union.svg

<svg width="30" height="30" viewBox="0 0 30 30" fill="none" xmlns="http://www.w3.org/2000/svg">
<path d="M10.5405 19.4595H4.86486V23.5135H10.5405V19.4595Z" fill="white"/>
<path d="M4.86486 6.48649H10.5405V10.5405H4.86486V6.48649Z" fill="white"/>
<path d="M17.8378 19.4595H12.1622V23.5135H17.8378V19.4595Z" fill="white"/>
<path d="M12.1622 6.48649H17.8378V10.5405H12.1622V6.48649Z" fill="white"/>
<path d="M25.1351 12.973H4.86486V17.027H25.1351V12.973Z" fill="white"/>
<path d="M19.4595 19.4595H25.1351V23.5135H19.4595V19.4595Z" fill="white"/>
<path d="M25.1351 6.48649H19.4595V10.5405H25.1351V6.48649Z" fill="white"/>
<path fill-rule="evenodd" clip-rule="evenodd" d="M0 1.62162C0 0.726087 0.726026 0 1.62162 0H28.3784C29.274 0 30 0.726087 30 1.62162V28.3784C30 29.2739 29.274 30 28.3784 30H1.62162C0.726026 30 0 29.2739 0 28.3784V1.62162ZM1.62162 1.62162H28.3784V28.3784H1.62162V1.62162Z" fill="white"/>
</svg>

<svg xmlns="http://www.w3.org/2000/svg" width="30" height="30" fill="#fff" xmlns:v="https://vecta.io/nano"><path d="M10.541 19.46H4.865v4.054h5.676V19.46zM4.865 6.486h5.676v4.054H4.865V6.486zM17.838 19.46h-5.676v4.054h5.676V19.46zM12.162 6.486h5.676v4.054h-5.676V6.486zm12.973 6.487H4.865v4.054h20.27v-4.054zM19.46 19.46h5.676v4.054H19.46V19.46zm5.675-12.974H19.46v4.054h5.676V6.486z"/><path fill-rule="evenodd" d="M0 1.622A1.62 1.62 0 0 1 1.622 0h26.757A1.62 1.62 0 0 1 30 1.622v26.757A1.62 1.62 0 0 1 28.378 30H1.622A1.62 1.62 0 0 1 0 28.378V1.622zm1.622 0h26.757v26.757H1.622V1.622z"/></svg>
